X: 24
T:Kiely's Slide
M:12/8
L:1/8
Q:160
C:Trad
S:Dervish
R:Slide
K:D
A|:d2 e fed eAA A2 A|def a2 a g2 g f2 e|
d2 e fed eAA A2 A|1a2 a gfe d3 d2 A:|!
2a2 a gfe d3 d2 e||
|:f2 f fef g2 g gfe|f2 f fed efe d2 e|
f2 f fef g2 g g2 g|1a2 a gfe d3 d2 e:|2a2 a gfe d3 d2 A||

